X: 32763
T: Polska From Enviken
R: three-two
M: 3/2
K: Gminor
[K:Gmin] "2nd fiddle part" A2|:G3G ^F2FD B,3 D|B2B2 ABAG ^F3D|d2dd B2BB G2GG|1 ^FGFD B,4B,2 D2:|2 ^FGFD B,4B,2 [K:Gmaj] GA:|
|:B2B2 c2c2 d2d2|e2 (3efe d2 (3ded c2 (3cdc|B2B2 c2c2 d2dB|G2GD B,4B,2 [D2A2]|
B2B2 g2g2 f2f2|c3c f2fd efec|A2AB cdcB ABAG|FEDC B,2DB, G,B,DG|
B2B2 g2g2 f2f2|c3c f2fd efec|A2AB cdcB ABAG|1 FEDC B,4B,2 Bc:|2 FEDC B,4B,2 [K:Gmin] D2:|

